!!!OTL: Willie was a Wanton Wag
!!!id: HA004
**kern
*clefF4
*k[]
*C:
*M2/2
{8c
=1
8e
8g
8g
16a
16b
8.cc
16ee
8cc}
{8g
=2
8e
8c
8c
8ee
8.dd
16cc
8.a}
{16g
=3
8e
8g
8g
16a
16b
8.cc
16ee
8cc}
{8g
=4
8e
8c
8c
8ee
8.dd
16ee
8f}
{8ff
=5
8ee
8gg
8dd
8ee
8.cc
16dd
8ee}
{8cc
=6
8ee
8gg
8dd
8ee
8.dd
16cc
8a}
{8ff
=7
8ee
8gg
8dd
8ee
8.cc
16dd
8.ee}
{16ff
=8
8cc
8c
8c
8ee
8.dd
16ee
8cc}
==
*-
!!!minrhy: 16
!!!meter: 2/2
!!!cut: Willie was a Wanton Wag
!!!key: HA004  16  C 2/2
!!!fog: a--aw-av-aw'b--bw-b--c--
!!!bem: keine Vorschlge
!! Haydn: Volksliedbearbeitungen, Bd1
